lib/radiotmp/nrk-hardware-printer-expressive.svg

<svg width="24" height="24" viewBox="0 0 24 24" fill="none" xmlns="http://www.w3.org/2000/svg">
<path fill-rule="evenodd" clip-rule="evenodd" d="M17 5C17 4.44772 16.5523 4 16 4H11.5H8C7.44772 4 7 4.44772 7 5H17ZM5 5C3.34315 5 2 6.34315 2 8V16C2 17.6569 3.34315 19 5 19H6C6 20.6569 7.34315 22 9 22H15C16.6569 22 18 20.6569 18 19H19C20.6569 19 22 17.6569 22 16V8C22 6.34315 20.6569 5 19 5C19 3.34315 17.6569 2 16 2H8C6.34315 2 5 3.34315 5 5ZM4 8C4 7.44772 4.44772 7 5 7H19C19.5523 7 20 7.44772 20 8V16C20 16.5523 19.5523 17 19 17H18C18 15.3431 16.6569 14 15 14H9C7.34315 14 6 15.3431 6 17H5C4.44772 17 4 16.5523 4 16V8ZM16 19C16 19.5523 15.5523 20 15 20H9C8.44772 20 8 19.5523 8 19H16ZM16 17H8C8 16.4477 8.44772 16 9 16H15C15.5523 16 16 16.4477 16 17ZM8 10.5C8 11.3284 7.32843 12 6.5 12C5.67157 12 5 11.3284 5 10.5C5 9.67157 5.67157 9 6.5 9C7.32843 9 8 9.67157 8 10.5Z" fill="black"/>
</svg>

<svg xmlns="http://www.w3.org/2000/svg" viewBox="0 0 24 24"><path fill="#000" fill-rule="evenodd" d="M17 5a1 1 0 0 0-1-1H8a1 1 0 0 0-1 1h10ZM5 5a3 3 0 0 0-3 3v8a3 3 0 0 0 3 3h1a3 3 0 0 0 3 3h6a3 3 0 0 0 3-3h1a3 3 0 0 0 3-3V8a3 3 0 0 0-3-3 3 3 0 0 0-3-3H8a3 3 0 0 0-3 3ZM4 8a1 1 0 0 1 1-1h14a1 1 0 0 1 1 1v8a1 1 0 0 1-1 1h-1a3 3 0 0 0-3-3H9a3 3 0 0 0-3 3H5a1 1 0 0 1-1-1V8Zm12 11a1 1 0 0 1-1 1H9a1 1 0 0 1-1-1h8Zm0-2H8a1 1 0 0 1 1-1h6a1 1 0 0 1 1 1Zm-8-6.5a1.5 1.5 0 1 1-3 0 1.5 1.5 0 0 1 3 0Z" clip-rule="evenodd"/></svg>
